icon-themes/breeze_svg/cmd/32/italic.svg

<svg viewBox="0 0 32 32" xmlns="http://www.w3.org/2000/svg"><path d="m15 4v1h5l-10 22h-3v1h10v-1h-5l10-22h3v-1z" fill="#4d4d4d"/></svg>

<svg xmlns="http://www.w3.org/2000/svg" viewBox="0 0 32 32">
 <path 
     style="fill:#4d4d4d" 
     d="M 15 4 L 15 5 L 20 5 L 10 27 L 7 27 L 7 28 L 17 28 L 17 27 L 12 27 L 22 5 L 25 5 L 25 4 L 15 4 z "
     />
</svg>
